**kern	**silbe	**kern	**silbe	**harmony	**phrase	**leadinstrument	**rhyme	**timestamp	**harte
*ICvox	*	*ICvox	*	*M4/4	*	*	*	*	*M4/4
*VRlead	*	*VRbacking	*	*	*	*	*	*	*
*Hstimme	*	*Nstimme	*	*	*	*	*	*	*
*b:	*	*b:	*	*b:	*b:	*b:	*	*b:	*b:
*M4/4	*	*M4/4	*	*	*	*	*	*	*
*clefC3	*	*clefG2	*	*	*	*	*	*	*
r;	.	r;	.	1r;	.	r	.	0	N.C.
=1	=1	=1	=1	=1	=1	=1	=1	=1	=1
*>Letter>A	*>Letter>A	*>Letter>A	*>Letter>A	*>Letter>A	*>Letter>A	*>Letter>A	*>Letter>A	*>Letter>A	*>Letter>A
*>Label>Intro	*>Label>Intro	*>Label>Intro	*>Label>Intro	*>Label>Intro	*>Label>Intro	*>Label>Intro	*>Label>Intro	*>Label>Intro	*>Label>Intro
1r	.	1r	.	1GM	newline	guitar	.	1.285	G:maj
=2	=2	=2	=2	=2	=2	=2	=2	=2	=2
1r	.	1r	.	1GM	.	guitar	.	2.689	G:maj
=3	=3	=3	=3	=3	=3	=3	=3	=3	=3
1r	.	1r	.	1DM	.	guitar	.	4.094	D:maj
=4	=4	=4	=4	=4	=4	=4	=4	=4	=4
1r	.	1r	.	1DMm	.	guitar	.	5.498	D:7
=5	=5	=5	=5	=5	=5	=5	=5	=5	=5
1r	.	1r	.	1GM	newline	guitar	.	6.902	G:maj
=6	=6	=6	=6	=6	=6	=6	=6	=6	=6
1r	.	1r	.	1GM	.	guitar	.	8.318	G:maj
=7	=7	=7	=7	=7	=7	=7	=7	=7	=7
1r	.	1r	.	1Bm	->newline	guitar	.	9.734	B:min
=8	=8	=8	=8	=8	=8	=8	=8	=8	=8
1r	.	1r	.	1Bm	.	guitar	.	11.16	B:min
=9	=9	=9	=9	=9	=9	=9	=9	=9	=9
1r	.	1r	.	1GM	.	guitar	.	12.586	G:maj
=10	=10	=10	=10	=10	=10	=10	=10	=10	=10
1r	.	1r	.	1GM	.	guitar	.	14.012	G:maj
=11	=11	=11	=11	=11	=11	=11	=11	=11	=11
1r	.	1r	.	1DM	newline	guitar	.	15.438	D:maj
=12	=12	=12	=12	=12	=12	=12	=12	=12	=12
1r	.	1r	.	1DM	.	guitar	.	16.858	D:maj
=13	=13	=13	=13	=13	=13	=13	=13	=13	=13
1r	.	1r	.	1GM	.	guitar	.	18.278	G:maj
=14	=14	=14	=14	=14	=14	=14	=14	=14	=14
2r	.	1r	.	1GM	.	guitar	.	19.698	G:maj
8r	.	.	.	.	.	.	.	.	.
8B	There's	.	.	.	.	.	.	.	.
8B	a	.	.	.	.	.	.	.	.
8dq	_	.	.	.	.	.	.	.	.
[8e	light	.	.	.	.	.	.	.	.
=15	=15	=15	=15	=15	=15	=15	=15	=15	=15
*>Letter>B	*>Letter>B	*>Letter>B	*>Letter>B	*>Letter>B	*>Letter>B	*>Letter>B	*>Letter>B	*>Letter>B	*>Letter>B
*>Label>Verse	*>Label>Verse	*>Label>Verse	*>Label>Verse	*>Label>Verse	*>Label>Verse	*>Label>Verse	*>Label>Verse	*>Label>Verse	*>Label>Verse
4e]	_	1r	.	1Bm	newline	voice	.	21.118	B:min
8d	_	.	.	.	.	.	.	.	.
[8B	in	.	.	.	.	.	.	.	.
8B]	_	.	.	.	.	.	.	.	.
8B	your	.	.	.	.	.	.	.	.
8A	_	.	.	.	.	.	.	.	.
[8B	win	.	.	.	.	.	.	.	.
=16	=16	=16	=16	=16	=16	=16	=16	=16	=16
8B]	_	1r	.	1Bm	.	voice	.	22.54	B:min
8d	dow	.	.	.	.	.	.	.	.
4r	.	.	.	.	.	.	.	.	.
8r	.	.	.	.	.	.	.	.	.
8B	there's	.	.	.	.	.	.	.	.
8d	a	.	.	.	.	.	.	.	.
[8e	sha	.	.	.	.	.	.	.	.
=17	=17	=17	=17	=17	=17	=17	=17	=17	=17
4e]	_	1r	.	1Em	.	voice	.	23.962	E:min
8d	dow	.	.	.	.	.	.	.	.
[8d	on	.	.	.	.	.	.	.	.
8d]	_	.	.	.	.	.	.	.	.
4d	the	.	.	.	.	.	.	.	.
8A	street	.	.	.	.	.	A	.	.
=18	=18	=18	=18	=18	=18	=18	=18	=18	=18
8B	_	1r	.	1Em	.	voice	.	25.384	E:min
8r	.	.	.	.	.	.	.	.	.
4r	.	.	.	.	.	.	.	.	.
8r	.	.	.	.	.	.	.	.	.
8f	Two	.	.	.	.	.	.	.	.
8e	sil-	.	.	.	.	.	.	.	.
8d	-hou-	.	.	.	.	.	.	.	.
=19	=19	=19	=19	=19	=19	=19	=19	=19	=19
4d	-ettes	1r	.	1DM	newline	voice	.	26.806	D:maj
8B	tell	.	.	.	.	.	.	.	.
[8B	me	.	.	.	.	.	.	.	.
8B]	_	.	.	.	.	.	.	.	.
4A	it's	.	.	.	.	.	.	.	.
8Eq	_	.	.	.	.	.	.	.	.
[8F#	o	.	.	.	.	.	.	.	.
=20	=20	=20	=20	=20	=20	=20	=20	=20	=20
8F#]	_	1r	.	1AM	.	voice	.	28.232	A:maj
8E	ver	.	.	.	.	.	.	.	.
4r	.	.	.	.	.	.	.	.	.
8r	.	.	.	.	.	.	.	.	.
8D	the	.	.	.	.	.	.	.	.
8~F	sha-	.	.	.	.	.	.	.	.
8~E	-dow	.	.	.	.	.	.	.	.
=21	=21	=21	=21	=21	=21	=21	=21	=21	=21
4~D	knows	1r	.	1Em	.	voice	.	29.658	E:min
4D	the	.	.	.	.	.	.	.	.
8G	sha-	.	.	.	.	.	.	.	.
4A	-dow's	.	.	.	.	.	.	.	.
[8B	me	.	.	.	.	.	A	.	.
=22	=22	=22	=22	=22	=22	=22	=22	=22	=22
8B]	_	1r	.	1Em	.	voice	.	31.084	E:min
8r	.	.	.	.	.	.	.	.	.
8r	.	.	.	.	.	.	.	.	.
[8f	I	.	.	.	.	.	.	.	.
8f]	_	.	.	.	.	.	.	.	.
4e	won't	.	.	.	.	.	.	.	.
8f	crawl	.	.	.	.	.	.	.	.
=23	=23	=23	=23	=23	=23	=23	=23	=23	=23
4e	_	1r	.	1Bm	newline	voice	.	32.51	B:min
8d	or	.	.	.	.	.	.	.	.
[8d	cause	.	.	.	.	.	.	.	.
8d]	_	.	.	.	.	.	.	.	.
8B	you	.	.	.	.	.	.	.	.
8A	_	.	.	.	.	.	.	.	.
[8B	trou	.	.	.	.	.	.	.	.
=24	=24	=24	=24	=24	=24	=24	=24	=24	=24
8B]	_	1r	.	1Bm	.	voice	.	33.934	B:min
8d	ble	.	.	.	.	.	.	.	.
4r	.	.	.	.	.	.	.	.	.
8r	.	.	.	.	.	.	.	.	.
8A	well,	.	.	.	.	.	.	.	.
8B	that's	.	.	.	.	.	.	.	.
8d	the	.	.	.	.	.	.	.	.
=25	=25	=25	=25	=25	=25	=25	=25	=25	=25
4e	last	1r	.	1Em	.	voice	.	35.358	E:min
8d	thing	.	.	.	.	.	.	.	.
8B	I'd	.	.	.	.	.	.	.	.
8d	e-	.	.	.	.	.	.	.	.
4d	-ver	.	.	.	.	.	.	.	.
8Aq	_	.	.	.	.	.	.	.	.
[8B	do	.	.	.	.	.	B	.	.
=26	=26	=26	=26	=26	=26	=26	=26	=26	=26
4B]	_	1r	.	1Em	.	voice	.	36.782	E:min
4r	.	.	.	.	.	.	.	.	.
8r	.	.	.	.	.	.	.	.	.
8f	But	.	.	.	.	.	.	.	.
8e	be-	.	.	.	.	.	.	.	.
8e	-fore	.	.	.	.	.	.	.	.
=27	=27	=27	=27	=27	=27	=27	=27	=27	=27
4d	_	1r	.	1Bm	newline	voice	.	38.206	B:min/5
8B	I	.	.	.	.	.	.	.	.
[8d	leave	.	.	.	.	.	.	.	.
8d]	_	.	.	.	.	.	.	.	.
8e	your	.	.	.	.	.	.	.	.
8d	_	.	.	.	.	.	.	.	.
8f	life	.	.	.	.	.	.	.	.
=28	=28	=28	=28	=28	=28	=28	=28	=28	=28
4e	_	1r	.	1GMm	.	voice	.	39.634	G:7
8e	com-	.	.	.	.	.	.	.	.
8e	-plete	.	.	.	.	.	.	.	.
8d	_	.	.	.	.	.	.	.	.
4d	ly,	.	.	.	.	.	.	.	.
[8f#	tell	.	.	.	.	.	.	.	.
=29	=29	=29	=29	=29	=29	=29	=29	=29	=29
8f#]	_	1r	.	1F#Mm	.	voice	.	41.062	F#:7
8f#	me	.	.	.	.	.	A	.	.
4r	.	.	.	.	.	.	.	.	.
2r	.	.	.	.	.	.	.	.	.
=30	=30	=30	=30	=30	=30	=30	=30	=30	=30
8r	.	1r	.	1F#Mm	.	voice	.	42.491	F#:7
8e	who	.	.	.	.	.	B	.	.
8d	_	.	.	.	.	.	.	.	.
[8e	wears	.	.	.	.	.	.	.	.
8e]	_	.	.	.	.	.	.	.	.
4e	these	.	.	.	.	.	.	.	.
16e	shoes	.	.	.	.	.	B	.	.
16d	/	.	.	.	.	.	.	.	.
=31	=31	=31	=31	=31	=31	=31	=31	=31	=31
*>Letter>B	*>Letter>B	*>Letter>B	*>Letter>B	*>Letter>B	*>Letter>B	*>Letter>B	*>Letter>B	*>Letter>B	*>Letter>B
*>Label>Refrain	*>Label>Refrain	*>Label>Refrain	*>Label>Refrain	*>Label>Refrain	*>Label>Refrain	*>Label>Refrain	*>Label>Refrain	*>Label>Refrain	*>Label>Refrain
4B	_	1r	.	1Bm	newline	voice	.	43.919	B:min
2.r	.	.	.	.	.	.	.	.	.
=32	=32	=32	=32	=32	=32	=32	=32	=32	=32
2r	.	2r	.	1Bm	.	voice	.	45.349	B:min
4r	.	4r	.	.	.	.	.	.	.
8r	.	8r	.	.	.	.	.	.	.
8dq	_	8f#q	_	.	.	.	.	.	.
[8e	Dar	[8g	Dar	.	.	.	.	.	.
=33	=33	=33	=33	=33	=33	=33	=33	=33	=33
8e]	_	8g]	_	1Em	.	voice	.	46.778	E:min
8f#	ling	8a	ling	.	.	.	.	.	.
4r	.	4r	.	.	.	.	.	.	.
2r	.	2r	.	.	.	.	.	.	.
=34	=34	=34	=34	=34	=34	=34	=34	=34	=34
1r	.	1r	.	1Em	.	voice	.	48.208	E:min
=35	=35	=35	=35	=35	=35	=35	=35	=35	=35
1r	.	1r	.	1Bm	newline	voice	.	49.638	B:min
=36	=36	=36	=36	=36	=36	=36	=36	=36	=36
1r	.	1r	.	1Bm	.	voice	.	51.062	B:min
=37	=37	=37	=37	=37	=37	=37	=37	=37	=37
1r	.	1r	.	1Em	.	voice	.	52.486	E:min
=38	=38	=38	=38	=38	=38	=38	=38	=38	=38
4r	.	1r	.	1Em	.	voice	.	53.91	E:min
8r	.	.	.	.	.	.	.	.	.
[8f	Lord	.	.	.	.	.	.	.	.
8f]	_	.	.	.	.	.	.	.	.
4e	knows	.	.	.	.	.	.	.	.
8d	the	.	.	.	.	.	.	.	.
=39	=39	=39	=39	=39	=39	=39	=39	=39	=39
*>Letter>B	*>Letter>B	*>Letter>B	*>Letter>B	*>Letter>B	*>Letter>B	*>Letter>B	*>Letter>B	*>Letter>B	*>Letter>B
*>Label>Verse	*>Label>Verse	*>Label>Verse	*>Label>Verse	*>Label>Verse	*>Label>Verse	*>Label>Verse	*>Label>Verse	*>Label>Verse	*>Label>Verse
8e	days	1r	.	1Bm	newline	voice	.	55.334	B:min
8f	_	.	.	.	.	.	.	.	.
8e	_	.	.	.	.	.	.	.	.
[8e	just	.	.	.	.	.	.	.	.
8e]	_	.	.	.	.	.	.	.	.
8e	get	.	.	.	.	.	.	.	.
8d	l-	.	.	.	.	.	.	.	.
[8e	-lon	.	.	.	.	.	.	.	.
=40	=40	=40	=40	=40	=40	=40	=40	=40	=40
8d	_	1r	.	1Bm	.	voice	.	56.76	B:min
8d	ger	.	.	.	.	.	.	.	.
8r	.	.	.	.	.	.	.	.	.
8F#	the	.	.	.	.	.	.	.	.
8B	nights	.	.	.	.	.	.	.	.
4d	grow	.	.	.	.	.	.	.	.
8d	cold	.	.	.	.	.	.	.	.
=41	=41	=41	=41	=41	=41	=41	=41	=41	=41
8e]	_	1r	.	1Em	.	voice	.	58.186	E:min
8d	_	.	.	.	.	.	.	.	.
8d	with	.	.	.	.	.	.	.	.
8B	you	.	.	.	.	.	.	.	.
8d	on	.	.	.	.	.	.	.	.
4d	my	.	.	.	.	.	.	.	.
8Aq	_	.	.	.	.	.	.	.	.
[8B	mind	.	.	.	.	.	C	.	.
=42	=42	=42	=42	=42	=42	=42	=42	=42	=42
4B]	_	1r	.	1Em	.	voice	.	59.612	E:min
4r	.	.	.	.	.	.	.	.	.
8r	.	.	.	.	.	.	.	.	.
8f	And	.	.	.	.	.	.	.	.
8e	I	.	.	.	.	.	.	.	.
8e	feel	.	.	.	.	.	.	.	.
=43	=43	=43	=43	=43	=43	=43	=43	=43	=43
4d	_	1r	.	1DM	newline	voice	.	61.038	D:maj
8d	like	.	.	.	.	.	.	.	.
8B	an	.	.	.	.	.	.	.	.
4.d	old	.	.	.	.	.	.	.	.
8Aq	_	.	.	.	.	.	.	.	.
[8B	juke	.	.	.	.	.	.	.	.
=44	=44	=44	=44	=44	=44	=44	=44	=44	=44
8B]	_	1r	.	1AM	.	voice	.	62.452	A:maj
4A	box	.	.	.	.	.	.	.	.
8r	.	.	.	.	.	.	.	.	.
8r	.	.	.	.	.	.	.	.	.
8F#	pla-	.	.	.	.	.	.	.	.
8E	-ying	.	.	.	.	.	.	.	.
8D	the	.	.	.	.	.	.	.	.
=45	=45	=45	=45	=45	=45	=45	=45	=45	=45
4E	same	1r	.	1Em	.	voice	.	63.866	E:min
4D	song	.	.	.	.	.	.	.	.
8F#	all	.	.	.	.	.	.	.	.
4A	the	.	.	.	.	.	.	.	.
8Aq	_	.	.	.	.	.	.	.	.
[8B	time	.	.	.	.	.	C	.	.
=46	=46	=46	=46	=46	=46	=46	=46	=46	=46
8B]	_	1r	.	1Em	.	voice	.	65.28	E:min
8r	.	.	.	.	.	.	.	.	.
8r	.	.	.	.	.	.	.	.	.
[8f	If	.	.	.	.	.	.	.	.
8f]	_	.	.	.	.	.	.	.	.
4f	these	.	.	.	.	.	.	.	.
8f	cra	.	.	.	.	.	.	.	.
=47	=47	=47	=47	=47	=47	=47	=47	=47	=47
4e	_	1r	.	1Bm	newline	voice	.	66.694	B:min
8d	zy	.	.	.	.	.	.	.	.
[8d	dreams	.	.	.	.	.	.	.	.
8d]	_	.	.	.	.	.	.	.	.
4e	don't	.	.	.	.	.	.	.	.
8e#q	_	.	.	.	.	.	.	.	.
[8f#	kill	.	.	.	.	.	.	.	.
=48	=48	=48	=48	=48	=48	=48	=48	=48	=48
8f#]	_	1r	.	1Bm	.	voice	.	68.116	B:min
8d	me	.	.	.	.	.	.	.	.
4r	.	.	.	.	.	.	.	.	.
8r	.	.	.	.	.	.	.	.	.
8~A	it's	.	.	.	.	.	.	.	.
8~d	more	.	.	.	.	.	.	.	.
8~B	than	.	.	.	.	.	.	.	.
=49	=49	=49	=49	=49	=49	=49	=49	=49	=49
4d	I	1r	.	1Em	.	voice	.	69.538	E:min
8B	can	.	.	.	.	.	.	.	.
[8d	take	.	.	.	.	.	.	.	.
8d]	_	.	.	.	.	.	.	.	.
8d	from	.	.	.	.	.	.	.	.
8e	_	.	.	.	.	.	.	.	.
[8d	you	.	.	.	.	.	B	.	.
=50	=50	=50	=50	=50	=50	=50	=50	=50	=50
4d]	_	1r	.	1Em	.	voice	.	70.96	E:min
4r	.	.	.	.	.	.	.	.	.
8r	.	.	.	.	.	.	.	.	.
8B	not	.	.	.	.	.	.	.	.
8d	kno-	.	.	.	.	.	.	.	.
8B	-wing	.	.	.	.	.	.	.	.
=51	=51	=51	=51	=51	=51	=51	=51	=51	=51
4d	where	1r	.	1Bm	newline	voice	.	72.382	B:min/5
8B	or	.	.	.	.	.	.	.	.
[8d	when	.	.	.	.	.	.	.	.
8d]	_	.	.	.	.	.	.	.	.
4e	I'll	.	.	.	.	.	.	.	.
4eQ	_	.	.	.	.	.	.	.	.
[8f#	see	.	.	.	.	.	.	.	.
=52	=52	=52	=52	=52	=52	=52	=52	=52	=52
8f#]	_	1r	.	1GMm	.	voice	.	73.826	G:7
8B	you	.	.	.	.	.	.	.	.
4r	.	.	.	.	.	.	.	.	.
8B	not	.	.	.	.	.	.	.	.
8d	kno-	.	.	.	.	.	.	.	.
8e	-wing	.	.	.	.	.	.	.	.
8r	.	.	.	.	.	.	.	.	.
=53	=53	=53	=53	=53	=53	=53	=53	=53	=53
4f#	dar-	1r	.	1F#Mm	.	voice	.	75.27	F#:7
4e	-ling	.	.	.	.	.	.	.	.
2r	.	.	.	.	.	.	.	.	.
=54	=54	=54	=54	=54	=54	=54	=54	=54	=54
8r	.	1r	.	1F#Mm	.	voice	.	76.714	F#:7
8f	who	.	.	.	.	.	B	.	.
8e	_	.	.	.	.	.	.	.	.
[8e	wears	.	.	.	.	.	.	.	.
8e]	_	.	.	.	.	.	.	.	.
4e	these	.	.	.	.	.	.	.	.
16e	shoes	.	.	.	.	.	B	.	.
16d	_	.	.	.	.	.	.	.	.
=55	=55	=55	=55	=55	=55	=55	=55	=55	=55
*>Letter>B	*>Letter>B	*>Letter>B	*>Letter>B	*>Letter>B	*>Letter>B	*>Letter>B	*>Letter>B	*>Letter>B	*>Letter>B
*>Label>Refrain	*>Label>Refrain	*>Label>Refrain	*>Label>Refrain	*>Label>Refrain	*>Label>Refrain	*>Label>Refrain	*>Label>Refrain	*>Label>Refrain	*>Label>Refrain
4B	_	1r	.	1Bm	newline	voice	.	78.158	B:min
4r	.	.	.	.	.	.	.	.	.
2r	.	.	.	.	.	.	.	.	.
=56	=56	=56	=56	=56	=56	=56	=56	=56	=56
4r	.	1r	.	1Bm	.	voice	.	79.553	B:min
8r	.	.	.	.	.	.	.	.	.
8B	My	.	.	.	.	.	.	.	.
8f	friends	.	.	.	.	.	.	.	.
4e	all	.	.	.	.	.	.	.	.
8f	say	.	.	.	.	.	.	.	.
=57	=57	=57	=57	=57	=57	=57	=57	=57	=57
*>Letter>C	*>Letter>C	*>Letter>C	*>Letter>C	*>Letter>C	*>Letter>C	*>Letter>C	*>Letter>C	*>Letter>C	*>Letter>C
*>Label>Verse	*>Label>Verse	*>Label>Verse	*>Label>Verse	*>Label>Verse	*>Label>Verse	*>Label>Verse	*>Label>Verse	*>Label>Verse	*>Label>Verse
4e	_	4r	.	1DM	newline	voice	.	80.948	D:maj
4e	\\\"don't	4f# 4a	Hoo,	.	.	.	.	.	.
8eq	_	.	.	.	.	.	.	.	.
4d	go	4f# 4a	hoo	.	.	.	.	.	.
8d	to	4r	.	.	.	.	.	.	.
[8d	pie	.	.	.	.	.	.	.	.
=58	=58	=58	=58	=58	=58	=58	=58	=58	=58
.	.	8f#q 8aq	_	.	.	.	.	.	.
8d]	_	4.g 4.b	hoo	1DM	.	voice	.	82.382	D:maj
8~E	ces,\\\"	.	.	.	.	.	.	.	.
8r	.	.	.	.	.	.	.	.	.
8F#	I	8f# 8a	_	.	.	.	.	.	.
8B	say,	2r	.	.	.	.	.	.	.
4d	\\\"that's	.	.	.	.	.	.	.	.
8f	fine	.	.	.	.	.	.	.	.
=59	=59	=59	=59	=59	=59	=59	=59	=59	=59
4e	_	4r	.	1AM	.	voice	.	83.816	A:maj/3
8e	but	4e 4a	Hoo,	.	.	.	.	.	.
[8e	if	.	.	.	.	.	.	.	.
8e]	_	4e 4a	hoo	.	.	.	.	.	.
4d	I	.	.	.	.	.	.	.	.
.	.	4r	.	.	.	.	.	.	.
8f	lose	.	.	.	.	.	B	.	.
=60	=60	=60	=60	=60	=60	=60	=60	=60	=60
.	.	8eq 8aq	_	.	.	.	.	.	.
4e	_	4.f# 4.b	hoo	1AM	.	voice	.	85.25	A:maj/3
8r	.	.	.	.	.	.	.	.	.
8eq	_	.	.	.	.	.	.	.	.
8f	I	8e 8a	_	.	.	.	.	.	.
4e	_	2r	.	.	.	.	.	.	.
8e	wan-	.	.	.	.	.	.	.	.
8d	-na	.	.	.	.	.	.	.	.
=61	=61	=61	=61	=61	=61	=61	=61	=61	=61
4d	know	4r	.	1Em	newline	voice	.	86.684	E:min
8d	who's	8e 8g	Hoo,	.	.	.	.	.	.
[8d	in	4e 4g	_	.	.	.	.	.	.
8d]	_	.	.	.	.	.	.	.	.
4e	my	4r	.	.	.	.	.	.	.
8eq	_	.	.	.	.	.	.	.	.
[8f#	foot	8r	.	.	.	.	.	.	.
=62	=62	=62	=62	=62	=62	=62	=62	=62	=62
.	.	8eq 8gq	_	.	.	.	.	.	.
8f#]	_	4.f# 4.a	hoo	1Em	.	voice	.	88.102	E:min
4d	steps	.	.	.	.	.	.	.	.
8r	.	8e 8g	_	.	.	.	.	.	.
8r	.	2r	.	.	.	.	.	.	.
8d	I	.	.	.	.	.	.	.	.
8d	wan-	.	.	.	.	.	.	.	.
8B	-na	.	.	.	.	.	.	.	.
=63	=63	=63	=63	=63	=63	=63	=63	=63	=63
4d	know	1r	.	1Em	.	voice	.	89.521	E:min
8B	who	.	.	.	.	.	B	.	.
[8d	wears	.	.	.	.	.	.	.	.
8d]	_	.	.	.	.	.	.	.	.
4e	these	.	.	.	.	.	.	.	.
8f	shoes	.	.	.	.	.	B	.	.
=64	=64	=64	=64	=64	=64	=64	=64	=64	=64
4e	_	1r	.	1F#M	.	voice	.	90.939	F#:maj
8r	.	.	.	.	.	.	.	.	.
8~E	My	.	.	.	.	.	.	.	.
8B	friends	.	.	.	.	.	.	.	.
4d	all	.	.	.	.	.	.	.	.
16f	think	.	.	.	.	.	.	.	.
16f#	_	.	.	.	.	.	.	.	.
=65	=65	=65	=65	=65	=65	=65	=65	=65	=65
4e	_	4r	.	1DM	newline	voice	.	92.358	D:maj
4e	I	4f# 4a	Hoo,	.	.	.	.	.	.
8e	must	4f# 4a	hoo	.	.	.	.	.	.
4d	be	.	.	.	.	.	.	.	.
.	.	4r	.	.	.	.	.	.	.
[8d	cra	.	.	.	.	.	.	.	.
=66	=66	=66	=66	=66	=66	=66	=66	=66	=66
.	.	8f#q 8aq	_	.	.	.	.	.	.
8d]	_	4.g 4.b	hoo	1DM	.	voice	.	93.78	D:maj
8~E	zy	.	.	.	.	.	.	.	.
8r	.	.	.	.	.	.	.	.	.
8F#	I	8f# 8a	_	.	.	.	.	.	.
4f	see	2r	.	.	.	.	.	.	.
8e	the	.	.	.	.	.	.	.	.
8e	facts	.	.	.	.	.	.	.	.
=67	=67	=67	=67	=67	=67	=67	=67	=67	=67
4r	.	4r	.	1AM	.	voice	.	95.202	A:maj/3
8d	but	4e 4a	Hoo,	.	.	.	.	.	.
8e	if	.	.	.	.	.	.	.	.
8r	.	4e 4a	hoo	.	.	.	.	.	.
8e	it's	.	.	.	.	.	.	.	.
8d	_	4r	.	.	.	.	.	.	.
8f	true	.	.	.	.	.	B	.	.
=68	=68	=68	=68	=68	=68	=68	=68	=68	=68
.	.	8eq 8aq	_	.	.	.	.	.	.
4e	_	4.f# 4.b	hoo	1AM	.	voice	.	96.624	A:maj/3
8r	.	.	.	.	.	.	.	.	.
8eq	_	.	.	.	.	.	.	.	.
8f	I	8e 8a	_	.	.	.	.	.	.
4e	_	2r	.	.	.	.	.	.	.
8e	wan-	.	.	.	.	.	.	.	.
8d	-na	.	.	.	.	.	.	.	.
=69	=69	=69	=69	=69	=69	=69	=69	=69	=69
4d	know	1r	.	1Bm	newline	voice	.	98.046	B:min
8B	who's	.	.	.	.	.	.	.	.
[8d	in	.	.	.	.	.	.	.	.
8d]	_	.	.	.	.	.	.	.	.
4e	my	.	.	.	.	.	.	.	.
8eq	_	.	.	.	.	.	.	.	.
[8f#	foot	.	.	.	.	.	.	.	.
=70	=70	=70	=70	=70	=70	=70	=70	=70	=70
8f#]	_	1r	.	1GM	.	voice	.	99.482	G:maj
4d	steps	.	.	.	.	.	.	.	.
8r	.	.	.	.	.	.	.	.	.
8r	.	.	.	.	.	.	.	.	.
8f	I	.	.	.	.	.	.	.	.
8e	wan-	.	.	.	.	.	.	.	.
8d	-na	.	.	.	.	.	.	.	.
=71	=71	=71	=71	=71	=71	=71	=71	=71	=71
4d	know	1r	.	2Emm	.	voice	.	100.918	E:min7
4r	.	.	.	.	.	.	.	.	.
4f	who	.	.	2DM	.	voice	B	101.636	D:maj/3
4e	_	.	.	.	.	.	.	.	.
=72	=72	=72	=72	=72	=72	=72	=72	=72	=72
8e	wears	1r	.	2GM	.	voice	.	102.354	G:maj
8d	_	.	.	.	.	.	.	.	.
8.r	.	.	.	.	.	.	.	.	.
16eQ	_	.	.	.	.	.	.	.	.
16f	these	.	.	.	.	.	.	.	.
4.e	_	.	.	2AM	.	voice	.	103.072	A:maj
16e	shoes	.	.	.	.	.	B	.	.
16d	_	.	.	.	.	.	.	.	.
=73	=73	=73	=73	=73	=73	=73	=73	=73	=73
*>Letter>B	*>Letter>B	*>Letter>B	*>Letter>B	*>Letter>B	*>Letter>B	*>Letter>B	*>Letter>B	*>Letter>B	*>Letter>B
*>Label>Refrain	*>Label>Refrain	*>Label>Refrain	*>Label>Refrain	*>Label>Refrain	*>Label>Refrain	*>Label>Refrain	*>Label>Refrain	*>Label>Refrain	*>Label>Refrain
4B	_	1r	.	1Bm	newline	voice	.	103.79	B:min
4r	.	.	.	.	.	.	.	.	.
2r	.	.	.	.	.	.	.	.	.
=74	=74	=74	=74	=74	=74	=74	=74	=74	=74
2r	.	2r	.	1Bm	.	voice	.	105.218	B:min
4r	.	4r	.	.	.	.	.	.	.
8r	.	8r	.	.	.	.	.	.	.
8dq	_	8f#q	_	.	.	.	.	.	.
[8e	Dar	[8g	Dar	.	.	.	.	.	.
=75	=75	=75	=75	=75	=75	=75	=75	=75	=75
8e]	_	8g]	_	1Em	.	voice	.	106.646	E:min
8f#	ling	8a	ling	.	.	.	.	.	.
4r	.	4r	.	.	.	.	.	.	.
2r	.	2r	.	.	.	.	.	.	.
=76	=76	=76	=76	=76	=76	=76	=76	=76	=76
1r	.	1r	.	1Em	.	voice	.	108.074	E:min
=77	=77	=77	=77	=77	=77	=77	=77	=77	=77
1r	.	1r	.	1Bm	newline	voice	.	109.502	B:min
=78	=78	=78	=78	=78	=78	=78	=78	=78	=78
1r	.	1r	.	1Bm	.	voice	.	110.914	B:min
=79	=79	=79	=79	=79	=79	=79	=79	=79	=79
1r	.	1r	.	1Em	.	voice	.	112.326	E:min
=80	=80	=80	=80	=80	=80	=80	=80	=80	=80
4r	.	1r	.	1Em	.	voice	.	113.738	E:min
8r	.	.	.	.	.	.	.	.	.
8f	Oh,	.	.	.	.	.	.	.	.
8e	_	.	.	.	.	.	.	.	.
8e	and	.	.	.	.	.	.	.	.
8e	it's	.	.	.	.	.	.	.	.
8d	a	.	.	.	.	.	.	.	.
=81	=81	=81	=81	=81	=81	=81	=81	=81	=81
*>Letter>D	*>Letter>D	*>Letter>D	*>Letter>D	*>Letter>D	*>Letter>D	*>Letter>D	*>Letter>D	*>Letter>D	*>Letter>D
*>Label>Chorus	*>Label>Chorus	*>Label>Chorus	*>Label>Chorus	*>Label>Chorus	*>Label>Chorus	*>Label>Chorus	*>Label>Chorus	*>Label>Chorus	*>Label>Chorus
8e	chi-	1r	.	1GM	newline	voice	.	115.15	G:maj
8d	-ll-	.	.	.	.	.	.	.	.
4e	-ing	.	.	.	.	.	.	.	.
8e	fee-	.	.	.	.	.	.	.	.
8d	-ling	.	.	.	.	.	.	.	.
4r	.	.	.	.	.	.	.	.	.
=82	=82	=82	=82	=82	=82	=82	=82	=82	=82
2r	.	1r	.	1GM	.	voice	.	116.572	G:maj
8r	.	.	.	.	.	.	.	.	.
8f#	when	.	.	.	.	.	.	.	.
4f#	I	.	.	.	.	.	.	.	.
=83	=83	=83	=83	=83	=83	=83	=83	=83	=83
8fq	_	.	.	.	.	.	.	.	.
4.f#	can't	1r	.	1AM	.	voice	.	117.994	A:maj
[8f#	see	.	.	.	.	.	.	.	.
8f#]	_	.	.	.	.	.	.	.	.
8e	him	.	.	.	.	.	.	.	.
4r	.	.	.	.	.	.	.	.	.
=84	=84	=84	=84	=84	=84	=84	=84	=84	=84
4r	.	1r	.	1AM	.	voice	.	119.416	A:maj
8r	.	.	.	.	.	.	.	.	.
8fq	_	.	.	.	.	.	.	.	.
[8f#	What	.	.	.	.	.	.	.	.
8f#]	_	.	.	.	.	.	.	.	.
8e	do	.	.	.	.	.	.	.	.
8d	I	.	.	.	.	.	.	.	.
8d	do	.	.	.	.	.	B	.	.
=85	=85	=85	=85	=85	=85	=85	=85	=85	=85
1r	.	1r	.	4DM	newline	voice	.	120.838	D:maj
.	.	.	.	4GM	.	voice	.	121.193	G:maj/5
.	.	.	.	2DM	.	voice	.	121.548	D:maj
=86	=86	=86	=86	=86	=86	=86	=86	=86	=86
4r	.	1r	.	2GM	.	voice	.	122.258	G:maj/5
8r	.	.	.	.	.	.	.	.	.
8fq	_	.	.	.	.	.	.	.	.
[8f#	when	.	.	.	.	.	.	.	.
8f#]	_	.	.	2DM	.	voice	.	122.968	D:maj
8f#	I	.	.	.	.	.	.	.	.
8e	face	.	.	.	.	.	.	.	.
8d	the	.	.	.	.	.	.	.	.
=87	=87	=87	=87	=87	=87	=87	=87	=87	=87
4f#	two	2f# 2a	Two	2DM	.	voice	B	123.678	D:maj
4d	_	.	.	.	.	.	.	.	.
4dQ	_	.	.	.	.	.	.	.	.
2e	of	2g 2b	of	2Emm	.	voice	.	124.388	E:min7
=88	=88	=88	=88	=88	=88	=88	=88	=88	=88
4d	you	2.a 2.cc	you	1DMm	.	voice	B	125.098	D:7/3
8r	.	.	.	.	.	.	.	.	.
8fq	_	.	.	.	.	.	.	.	.
[8f#	Oh,	.	.	.	.	.	.	.	.
8f#]	_	.	.	.	.	.	.	.	.
8d	and	.	.	.	.	.	.	.	.
8e	it's	4r	.	.	.	.	.	.	.
8d	a	.	.	.	.	.	.	.	.
=89	=89	=89	=89	=89	=89	=89	=89	=89	=89
8e	chi-	1r	.	1GM	newline	voice	.	126.518	G:maj
8d	-ll-	.	.	.	.	.	.	.	.
4e	-ing	.	.	.	.	.	.	.	.
8e	fee-	.	.	.	.	.	.	.	.
8d	-ling	.	.	.	.	.	.	.	.
4r	.	.	.	.	.	.	.	.	.
=90	=90	=90	=90	=90	=90	=90	=90	=90	=90
2r	.	1r	.	2GM	.	voice	.	127.954	G:sus4
8r	.	.	.	2GM	.	voice	.	128.672	G:maj
8~f#	when	.	.	.	.	.	.	.	.
4f#	I	.	.	.	.	.	.	.	.
=91	=91	=91	=91	=91	=91	=91	=91	=91	=91
8fq	_	.	.	.	.	.	.	.	.
4.f#	can't	1r	.	1AM	.	voice	.	129.39	A:maj
[8f#	see	.	.	.	.	.	.	.	.
8f#]	_	.	.	.	.	.	.	.	.
8e	him	.	.	.	.	.	.	.	.
4r	.	.	.	.	.	.	.	.	.
=92	=92	=92	=92	=92	=92	=92	=92	=92	=92
2r	.	1r	.	2AM	.	voice	.	130.826	A:sus4
8f#	what	.	.	2AM	.	voice	.	131.544	A:maj
8e	do	.	.	.	.	.	B	.	.
8d	I	.	.	.	.	.	.	.	.
8d	do?	.	.	.	.	.	B	.	.
=93	=93	=93	=93	=93	=93	=93	=93	=93	=93
1r	.	1r	.	1Em	newline	voice	.	132.262	E:min
=94	=94	=94	=94	=94	=94	=94	=94	=94	=94
2r	.	1r	.	1Em	.	voice	.	133.688	E:min
8f#	What	.	.	.	.	.	.	.	.
8e	do	.	.	.	.	.	B	.	.
8d	I	.	.	.	.	.	.	.	.
8fq	_	.	.	.	.	.	.	.	.
[8f#	do,	.	.	.	.	.	B	.	.
=95	=95	=95	=95	=95	=95	=95	=95	=95	=95
1f#]	_	1r	.	1F#Mm	.	voice	.	135.114	F#:7
=96	=96	=96	=96	=96	=96	=96	=96	=96	=96
8e	_	1r	.	1F#Mm	.	voice	.	136.54	F#:7
4f#	my	.	.	.	.	.	.	.	.
[8f#	friends	.	.	.	.	.	.	.	.
8f#]	_	.	.	.	.	.	.	.	.
4f#	all	.	.	.	.	.	.	.	.
8f	say,	.	.	.	.	.	.	.	.
=97	=97	=97	=97	=97	=97	=97	=97	=97	=97
*>Letter>C	*>Letter>C	*>Letter>C	*>Letter>C	*>Letter>C	*>Letter>C	*>Letter>C	*>Letter>C	*>Letter>C	*>Letter>C
*>Label>Verse	*>Label>Verse	*>Label>Verse	*>Label>Verse	*>Label>Verse	*>Label>Verse	*>Label>Verse	*>Label>Verse	*>Label>Verse	*>Label>Verse
4e	_	4r	.	1DM	newline	voice	.	137.966	D:maj
4e	\\\"don't	4f# 4a	Hoo,	.	.	.	.	.	.
8eq	_	.	.	.	.	.	.	.	.
4d	go	4f# 4a	hoo	.	.	.	.	.	.
8d	to	4r	.	.	.	.	.	.	.
[8d	pie	.	.	.	.	.	.	.	.
=98	=98	=98	=98	=98	=98	=98	=98	=98	=98
.	.	8f#q 8aq	_	.	.	.	.	.	.
8d]	_	4.g 4.b	hoo	1DM	.	voice	.	139.382	D:maj
8~E	ces	.	.	.	.	.	.	.	.
8r	.	.	.	.	.	.	.	.	.
8F#	I	8f# 8a	_	.	.	.	.	.	.
8~f#	say,	2r	.	.	.	.	.	.	.
4~e	\\\"that's	.	.	.	.	.	.	.	.
8f	fine	.	.	.	.	.	.	.	.
=99	=99	=99	=99	=99	=99	=99	=99	=99	=99
4e	_	4r	.	1AM	.	voice	.	140.798	A:maj/3
8e	but	4e 4a	Hoo,	.	.	.	.	.	.
[8e	if	.	.	.	.	.	.	.	.
8e]	_	4e 4a	hoo	.	.	.	.	.	.
4d	I	.	.	.	.	.	.	.	.
.	.	4r	.	.	.	.	.	.	.
8f	lose	.	.	.	.	.	B	.	.
=100	=100	=100	=100	=100	=100	=100	=100	=100	=100
.	.	8eq 8aq	_	.	.	.	.	.	.
4e	_	4.f# 4.b	hoo	1AM	.	voice	.	142.214	A:maj/3
8r	.	.	.	.	.	.	.	.	.
8eq	_	.	.	.	.	.	.	.	.
8f	I	8e 8a	_	.	.	.	.	.	.
4e	_	2r	.	.	.	.	.	.	.
8e	wan-	.	.	.	.	.	.	.	.
8d	-na	.	.	.	.	.	.	.	.
=101	=101	=101	=101	=101	=101	=101	=101	=101	=101
4d	know	4r	.	1Em	newline	voice	.	143.63	E:min
8d	who's	8e 8g	Hoo,	.	.	.	.	.	.
[8d	in	4e 4g	_	.	.	.	.	.	.
8d]	_	.	.	.	.	.	.	.	.
4e	my	4r	.	.	.	.	.	.	.
8eq	_	.	.	.	.	.	.	.	.
[8f#	foot	8r	.	.	.	.	.	.	.
=102	=102	=102	=102	=102	=102	=102	=102	=102	=102
.	.	8eq 8gq	_	.	.	.	.	.	.
8f#]	_	4.f# 4.a	hoo	1Em	.	voice	.	145.051	E:min
4d	steps	.	.	.	.	.	.	.	.
8r	.	8e 8g	_	.	.	.	.	.	.
8r	.	2r	.	.	.	.	.	.	.
8f	I	.	.	.	.	.	.	.	.
8e	wan-	.	.	.	.	.	.	.	.
8d	-na	.	.	.	.	.	.	.	.
=103	=103	=103	=103	=103	=103	=103	=103	=103	=103
4d	know	1r	.	1Em	.	voice	.	146.472	E:min
8B	who	.	.	.	.	.	B	.	.
[8d	wears	.	.	.	.	.	.	.	.
8d]	_	.	.	.	.	.	.	.	.
4e	these	.	.	.	.	.	.	.	.
8f	shoes	.	.	.	.	.	B	.	.
=104	=104	=104	=104	=104	=104	=104	=104	=104	=104
4e	_	1r	.	1F#M	.	voice	.	147.893	F#:maj
8r	.	.	.	.	.	.	.	.	.
8~E	My	.	.	.	.	.	.	.	.
8A	friends	.	.	.	.	.	.	.	.
4d	all	.	.	.	.	.	.	.	.
[8f	think	.	.	.	.	.	.	.	.
=105	=105	=105	=105	=105	=105	=105	=105	=105	=105
4f]	_	4r	.	1DM	newline	voice	.	149.314	D:maj
4e	I	4f# 4a	Hoo,	.	.	.	.	.	.
8e	must	4f# 4a	hoo	.	.	.	.	.	.
4d	be	.	.	.	.	.	.	.	.
.	.	4r	.	.	.	.	.	.	.
[8d	cra	.	.	.	.	.	.	.	.
=106	=106	=106	=106	=106	=106	=106	=106	=106	=106
.	.	8f#q 8aq	_	.	.	.	.	.	.
8d]	_	4.g 4.b	hoo	1DM	.	voice	.	150.741	D:maj
8~E	zy	.	.	.	.	.	.	.	.
8r	.	.	.	.	.	.	.	.	.
8F#	I	8f# 8a	_	.	.	.	.	.	.
8eq	_	.	.	.	.	.	.	.	.
4f	see	2r	.	.	.	.	.	.	.
8e	the	.	.	.	.	.	.	.	.
8e	facts	.	.	.	.	.	.	.	.
=107	=107	=107	=107	=107	=107	=107	=107	=107	=107
4r	.	4r	.	1AM	.	voice	.	152.168	A:maj/3
8d	but	4e 4a	Hoo,	.	.	.	.	.	.
8e	if	.	.	.	.	.	.	.	.
8r	.	4e 4a	hoo	.	.	.	.	.	.
8e	it's	.	.	.	.	.	.	.	.
8d	_	4r	.	.	.	.	.	.	.
8f	true	.	.	.	.	.	B	.	.
=108	=108	=108	=108	=108	=108	=108	=108	=108	=108
.	.	8eq 8aq	_	.	.	.	.	.	.
4e	_	4.f# 4.b	hoo	1AM	.	voice	.	153.595	A:maj/3
8r	.	.	.	.	.	.	.	.	.
8eq	_	.	.	.	.	.	.	.	.
8f	I	8e 8a	_	.	.	.	.	.	.
4e	_	2r	.	.	.	.	.	.	.
8e	wan-	.	.	.	.	.	.	.	.
8d	-na	.	.	.	.	.	.	.	.
=109	=109	=109	=109	=109	=109	=109	=109	=109	=109
4d	know	4r	.	1Bm	newline	voice	.	155.022	B:min
8B	who's	8e 8g	Hoo,	.	.	.	.	.	.
[8d	in	4e 4g	_	.	.	.	.	.	.
8d]	_	.	.	.	.	.	.	.	.
4e	my	4r	.	.	.	.	.	.	.
8eq	_	.	.	.	.	.	.	.	.
[8f#	foot	8r	.	.	.	.	.	.	.
=110	=110	=110	=110	=110	=110	=110	=110	=110	=110
.	.	8eq 8gq	_	.	.	.	.	.	.
8f#]	_	4.f# 4.a	hoo	1GM	.	voice	.	156.45	G:maj
4d	steps	.	.	.	.	.	.	.	.
8r	.	8e 8g	_	.	.	.	.	.	.
8r	.	2r	.	.	.	.	.	.	.
8f	I	.	.	.	.	.	.	.	.
8e	wan-	.	.	.	.	.	.	.	.
8d	-na	.	.	.	.	.	.	.	.
=111	=111	=111	=111	=111	=111	=111	=111	=111	=111
4d	know	1r	.	2Emm	.	voice	.	157.878	E:min7
4r	.	.	.	.	.	.	.	.	.
4f	who	.	.	2DM	.	voice	B	158.592	D:maj/3
4e	_	.	.	.	.	.	.	.	.
=112	=112	=112	=112	=112	=112	=112	=112	=112	=112
8e	wears	1r	.	2GM	.	voice	.	159.306	G:maj
8d	_	.	.	.	.	.	.	.	.
8.r	.	.	.	.	.	.	.	.	.
16eQ	_	.	.	.	.	.	.	.	.
16f	these	.	.	.	.	.	.	.	.
4.e	_	.	.	2AM	.	voice	.	160.02	A:maj
16e	shoes	.	.	.	.	.	B	.	.
16d	_	.	.	.	.	.	.	.	.
=113	=113	=113	=113	=113	=113	=113	=113	=113	=113
*>Letter>B	*>Letter>B	*>Letter>B	*>Letter>B	*>Letter>B	*>Letter>B	*>Letter>B	*>Letter>B	*>Letter>B	*>Letter>B
*>Label>Refrain	*>Label>Refrain	*>Label>Refrain	*>Label>Refrain	*>Label>Refrain	*>Label>Refrain	*>Label>Refrain	*>Label>Refrain	*>Label>Refrain	*>Label>Refrain
4B	_	1r	.	1Bm	newline	voice	.	160.734	B:min
4r	.	.	.	.	.	.	.	.	.
2r	.	.	.	.	.	.	.	.	.
=114	=114	=114	=114	=114	=114	=114	=114	=114	=114
2r	.	2r	.	1Bm	.	voice	.	162.166	B:min
4r	.	4r	.	.	.	.	.	.	.
8r	.	8r	.	.	.	.	.	.	.
8dq	_	8f#q	_	.	.	.	.	.	.
[8e	Dar	[8g	Dar	.	.	.	.	.	.
=115	=115	=115	=115	=115	=115	=115	=115	=115	=115
8e]	_	8g]	_	1Em	.	voice	.	163.598	E:min
8f#	ling	8a	ling	.	.	.	.	.	.
4r	.	4r	.	.	.	.	.	.	.
2r	.	2r	.	.	.	.	.	.	.
=116	=116	=116	=116	=116	=116	=116	=116	=116	=116
1r	.	1r	.	1Em	.	voice	.	165.03	E:min
=117	=117	=117	=117	=117	=117	=117	=117	=117	=117
1r	.	1r	.	1Bm	newline	voice	.	166.462	B:min
=118	=118	=118	=118	=118	=118	=118	=118	=118	=118
2r	.	2r	.	1Bm	.	voice	.	167.894	B:min
4r	.	4r	.	.	.	.	.	.	.
8r	.	8r	.	.	.	.	.	.	.
8dq	_	8f#q	_	.	.	.	.	.	.
[8e	Dar	[8g	Dar	.	.	.	.	.	.
=119	=119	=119	=119	=119	=119	=119	=119	=119	=119
8e]	_	8g]	_	1Em	.	voice	.	169.326	E:min
8f#	ling	8a	ling	.	.	.	.	.	.
4r	.	4r	.	.	.	.	.	.	.
2r	.	2r	.	.	.	.	.	.	.
=120	=120	=120	=120	=120	=120	=120	=120	=120	=120
2r	.	1r	.	1Em	.	voice	.	170.758	E:min
4r	.	.	.	.	.	.	.	.	.
8r	.	.	.	.	.	.	.	.	.
8A	Uh	.	.	.	.	.	.	.	.
=121	=121	=121	=121	=121	=121	=121	=121	=121	=121
*>Letter>A	*>Letter>A	*>Letter>A	*>Letter>A	*>Letter>A	*>Letter>A	*>Letter>A	*>Letter>A	*>Letter>A	*>Letter>A
*>Label>Chorus	*>Label>Chorus	*>Label>Chorus	*>Label>Chorus	*>Label>Chorus	*>Label>Chorus	*>Label>Chorus	*>Label>Chorus	*>Label>Chorus	*>Label>Chorus
8f	come	1r	.	1GM	newline	voice	.	172.19	G:maj
4e	on	.	.	.	.	.	.	.	.
8e	now	.	.	.	.	.	.	.	.
8r	.	.	.	.	.	.	.	.	.
8B	I've	.	.	.	.	.	.	.	.
4d	got	.	.	.	.	.	.	.	.
=122	=122	=122	=122	=122	=122	=122	=122	=122	=122
8d	no-	1r	.	1GM	.	voice	.	173.612	G:maj
8d	-thing	.	.	.	.	.	.	.	.
8e	to	.	.	.	.	.	.	.	.
8fq	_	.	.	.	.	.	.	.	.
[8f#	lose,	.	.	.	.	.	B	.	.
8f#]	_	.	.	.	.	.	.	.	.
8f#	I	.	.	.	.	.	.	.	.
8e	wan-	.	.	.	.	.	.	.	.
8d	-na	.	.	.	.	.	.	.	.
=123	=123	=123	=123	=123	=123	=123	=123	=123	=123
4d	know,	1r	.	1DM	.	voice	.	175.034	D:maj
8d	wan-	.	.	.	.	.	.	.	.
8B	-na	.	.	.	.	.	.	.	.
4d	know	.	.	.	.	.	.	.	.
8r	.	.	.	.	.	.	.	.	.
8B	who	.	.	.	.	.	.	.	.
=124	=124	=124	=124	=124	=124	=124	=124	=124	=124
8d	wears	1r	.	1DM	.	voice	.	176.456	D:maj
4e	these	.	.	.	.	.	.	.	.
8f	shoes?	.	.	.	.	.	B	.	.
4.e	_	.	.	.	.	.	.	.	.
8fq	_	.	.	.	.	.	.	.	.
[8e	Come	.	.	.	.	.	.	.	.
=125	=125	=125	=125	=125	=125	=125	=125	=125	=125
8e]	_	1r	.	1GM	newline	voice	.	177.878	G:maj
4d	on,	.	.	.	.	.	.	.	.
8d	no	.	.	.	.	.	.	.	.
4r	.	.	.	.	.	.	.	.	.
8r	.	.	.	.	.	.	.	.	.
8B	Got	.	.	.	.	.	.	.	.
=126	=126	=126	=126	=126	=126	=126	=126	=126	=126
8d	no-	1r	.	1GM	.	voice	.	179.294	G:maj
8d	-thing	.	.	.	.	.	.	.	.
8e	to	.	.	.	.	.	.	.	.
8fq	_	.	.	.	.	.	.	.	.
[8e	lose,	.	.	.	.	.	B	.	.
8e]	_	.	.	.	.	.	.	.	.
8f#	I	.	.	.	.	.	.	.	.
8e	wan-	.	.	.	.	.	.	.	.
8d	-na	.	.	.	.	.	.	.	.
=127	=127	=127	=127	=127	=127	=127	=127	=127	=127
4d	know,	1r	.	1Bm	.	voice	.	180.71	B:min
8d	wan-	.	.	.	.	.	.	.	.
8B	-na	.	.	.	.	.	.	.	.
4d	know	.	.	.	.	.	.	.	.
8r	.	.	.	.	.	.	.	.	.
8B	who	.	.	.	.	.	B	.	.
=128	=128	=128	=128	=128	=128	=128	=128	=128	=128
8d	wears	1r	.	1Bm	.	voice	.	182.126	B:min
4e	these	.	.	.	.	.	.	.	.
[8~f	shoes,	.	.	.	.	.	B	.	.
8f#	_	.	.	.	.	.	.	.	.
8f#	I	.	.	.	.	.	.	.	.
8e	got	.	.	.	.	.	.	.	.
8d	the	.	.	.	.	.	.	.	.
=129	=129	=129	=129	=129	=129	=129	=129	=129	=129
4d	blues	1r	.	1GM	newline	voice	B	183.542	G:maj
4r	.	.	.	.	.	.	.	.	.
4r	.	.	.	.	.	.	.	.	.
8r	.	.	.	.	.	.	.	.	.
8B	W-	.	.	.	.	.	.	.	.
=130	=130	=130	=130	=130	=130	=130	=130	=130	=130
8d	-whe-	1r	.	1GM	.	voice	.	184.956	G:maj
8d	-ther	.	.	.	.	.	.	.	.
8e	it's	.	.	.	.	.	.	.	.
8~f_	true,	.	.	.	.	.	B	.	.
8f#	_	.	.	.	.	.	.	.	.
8f#	I	.	.	.	.	.	.	.	.
8e	got	.	.	.	.	.	.	.	.
8d	the	.	.	.	.	.	.	.	.
=131	=131	=131	=131	=131	=131	=131	=131	=131	=131
4d	blues	1r	.	1DM	.	voice	B	186.37	D:maj
4r	.	.	.	.	.	.	.	.	.
4r	.	.	.	.	.	.	.	.	.
8r	.	.	.	.	.	.	.	.	.
8B	W-	.	.	.	.	.	.	.	.
=132	=132	=132	=132	=132	=132	=132	=132	=132	=132
8d	-whe-	1r	.	1DM	.	voice	.	187.784	D:maj
8d	-ther	.	.	.	.	.	.	.	.
8e	it's	.	.	.	.	.	.	.	.
8~f_	true,	.	.	.	.	.	B	.	.
8f#	_	.	.	.	.	.	.	.	.
8f#	I	.	.	.	.	.	.	.	.
8e	wan-	.	.	.	.	.	.	.	.
8d	-na	.	.	.	.	.	.	.	.
=133	=133	=133	=133	=133	=133	=133	=133	=133	=133
4d	know	1r	.	1GM	newline	voice	.	189.198	G:maj
4r	.	.	.	.	.	.	.	.	.
4r	.	.	.	.	.	.	.	.	.
8r	.	.	.	.	.	.	.	.	.
8B	Got	.	.	.	.	.	.	.	.
=134	=134	=134	=134	=134	=134	=134	=134	=134	=134
8d	no-	1r	.	1GM	.	voice	.	190.624	G:maj
8d	-thing	.	.	.	.	.	.	.	.
8e	to	.	.	.	.	.	.	.	.
8~f_	lose,	.	.	.	.	.	B	.	.
8f#	_	.	.	.	.	.	.	.	.
8f#	I	.	.	.	.	.	.	.	.
8e	wan-	.	.	.	.	.	.	.	.
8d	-na	.	.	.	.	.	.	.	.
=135	=135	=135	=135	=135	=135	=135	=135	=135	=135
8f]	know,	1r	.	1Bm	.	voice	.	192.05	B:min
8f	I	.	.	.	.	.	.	.	.
8e	wan-	.	.	.	.	.	.	.	.
8d	-na	.	.	.	.	.	.	.	.
8d	know	.	.	.	.	.	.	.	.
8r	.	.	.	.	.	.	.	.	.
8r	.	.	.	.	.	.	.	.	.
8B	who	.	.	.	.	.	B	.	.
=136	=136	=136	=136	=136	=136	=136	=136	=136	=136
8d	wears	1r	.	1Bm	.	voice	.	193.476	B:min
4e	these	.	.	.	.	.	.	.	.
[8~f	shoes!	.	.	.	.	.	B	.	.
8f#	_	.	.	.	.	.	.	.	.
8f#	I	.	.	.	.	.	.	.	.
8e	got	.	.	.	.	.	.	.	.
8d	the	.	.	.	.	.	.	.	.
=137	=137	=137	=137	=137	=137	=137	=137	=137	=137
4d	blues	4r	.	1GM	newline	voice	B	194.902	G:maj
4r	.	4g 4b	Hoo,	.	.	.	.	.	.
4r	.	4g 4b	hoo	.	.	.	.	.	.
8r	.	4r	.	.	.	.	.	.	.
8B	_	.	.	.	.	.	.	.	.
=138	=138	=138	=138	=138	=138	=138	=138	=138	=138
.	.	8gq 8bq	_	.	.	.	.	.	.
8d	whe-	4.a 4.cc	hoo	1GM	.	voice	.	196.325	G:maj
8d	-ther	.	.	.	.	.	.	.	.
8e	it's	.	.	.	.	.	.	.	.
8~f_	true,	8g 8b	_	.	.	.	B	.	.
8f#	_	2r	.	.	.	.	.	.	.
8f#	I	.	.	.	.	.	.	.	.
8e	got	.	.	.	.	.	.	.	.
8d	the	.	.	.	.	.	.	.	.
=139	=139	=139	=139	=139	=139	=139	=139	=139	=139
4d	blues	4r	.	1DM	.	voice	B	197.749	D:maj
4r	.	4f# 4a	Hoo,	.	.	.	.	.	.
4r	.	4f# 4a	hoo	.	.	.	.	.	.
8r	.	4r	.	.	.	.	.	.	.
8B	W-	.	.	.	.	.	.	.	.
=140	=140	=140	=140	=140	=140	=140	=140	=140	=140
.	.	8f#q 8aq	_	.	.	.	.	.	.
8d	-whe-	4.g 4.b	hoo	1DM	.	voice	.	199.172	D:maj
8d	-ther	.	.	.	.	.	.	.	.
8e	it's	.	.	.	.	.	.	.	.
8~f_	true,	8f# 8a	_	.	.	.	B	.	.
8f#	_	2r	.	.	.	.	.	.	.
8f#	I	.	.	.	.	.	.	.	.
8e	got	.	.	.	.	.	.	.	.
8d	the	.	.	.	.	.	.	.	.
=141	=141	=141	=141	=141	=141	=141	=141	=141	=141
4d	blues	4r	.	1GM	newline	voice	B	200.596	G:maj
4r	.	4g 4b	Hoo,	.	.	.	.	.	.
4r	.	4g 4b	hoo	.	.	.	.	.	.
8r	.	4r	.	.	.	.	.	.	.
8B	Got	.	.	.	.	.	.	.	.
=142	=142	=142	=142	=142	=142	=142	=142	=142	=142
.	.	8gq 8bq	_	.	.	.	.	.	.
8d	no	4.a 4.cc	hoo	1GM	.	voice	.	202.016	G:maj
8d	thing	.	.	.	.	.	.	.	.
8e	to	.	.	.	.	.	.	.	.
8~f_	lose,	8g 8b	_	.	.	.	B	.	.
8f#	_	4r	.	.	.	.	.	.	.
8f#	I	.	.	.	.	.	.	.	.
8e	wan	[4f# [4a	hoo	.	.	.	.	.	.
8d	na	.	.	.	.	.	.	.	.
=143	=143	=143	=143	=143	=143	=143	=143	=143	=143
8f]	know,	2f#] 2a]	_	1Bm	.	voice	.	203.436	B:min
8f	I	.	.	.	.	.	.	.	.
8e	wan-	.	.	.	.	.	.	.	.
8d	-na	.	.	.	.	.	.	.	.
8d	know	2r	.	.	.	.	.	.	.
8r	.	.	.	.	.	.	.	.	.
8r	.	.	.	.	.	.	.	.	.
8B	who	.	.	.	.	.	B	.	.
=144	=144	=144	=144	=144	=144	=144	=144	=144	=144
8d	wears	1r	.	1Bm	.	voice	.	204.856	B:min
4e	these	.	.	.	.	.	.	.	.
[8~f	shoes,	.	.	.	.	.	B	.	.
8f#	_	.	.	.	.	.	.	.	.
8f#	I	.	.	.	.	.	.	.	.
8e	wan-	.	.	.	.	.	.	.	.
8d	-na	.	.	.	.	.	.	.	.
=145	=145	=145	=145	=145	=145	=145	=145	=145	=145
4d	blues	4r	.	1GM	newline	voice	B	206.276	G:maj
4r	.	4g 4b	Hoo,	.	.	.	.	.	.
4r	.	4g 4b	hoo	.	.	.	.	.	.
8r	.	4r	.	.	.	.	.	.	.
8B	W-	.	.	.	.	.	.	.	.
=146	=146	=146	=146	=146	=146	=146	=146	=146	=146
.	.	8gq 8bq	_	.	.	.	.	.	.
8d	-whe-	4.a 4.cc	hoo	1GM	.	voice	.	207.699	G:maj
8d	-ther	.	.	.	.	.	.	.	.
8e	it's	.	.	.	.	.	.	.	.
8~f_	true,	8g 8b	_	.	.	.	B	.	.
8f#	_	2r	.	.	.	.	.	.	.
8f#	I	.	.	.	.	.	.	.	.
8e	got	.	.	.	.	.	.	.	.
8d	the	.	.	.	.	.	.	.	.
=147	=147	=147	=147	=147	=147	=147	=147	=147	=147
4d	blues	4r	.	1DM	.	voice	B	209.122	D:maj
4r	.	4f# 4a	Hoo,	.	.	.	.	.	.
4r	.	4f# 4a	hoo	.	.	.	.	.	.
8r	.	4r	.	.	.	.	.	.	.
8B	W-	.	.	.	.	.	.	.	.
=148	=148	=148	=148	=148	=148	=148	=148	=148	=148
.	.	8f#q 8aq	_	.	.	.	.	.	.
8d	-whe-	4.g 4.b	hoo	1DM	.	voice	.	210.545	D:maj
8d	-ther	.	.	.	.	.	.	.	.
8e	it's	.	.	.	.	.	.	.	.
8~f_	true,	8f# 8a	_	.	.	.	B	.	.
8f#	_	2r	.	.	.	.	.	.	.
8f#	I	.	.	.	.	.	.	.	.
8e	wan-	.	.	.	.	.	.	.	.
8d	-na	.	.	.	.	.	.	.	.
=149	=149	=149	=149	=149	=149	=149	=149	=149	=149
*>Label>>Fadeout	*>Label>>Fadeout	*>Label>>Fadeout	*>Label>>Fadeout	*>Label>>Fadeout	*>Label>>Fadeout	*>Label>>Fadeout	*>Label>>Fadeout	*>Label>>Fadeout	*>Label>>Fadeout
4d	know	4r	.	1GM	newline	voice	.	211.968	G:maj
4r	.	4g 4b	Hoo,	.	.	.	.	.	.
4r	.	4g 4b	hoo	.	.	.	.	.	.
8r	.	4r	.	.	.	.	.	.	.
8B	Got	.	.	.	.	.	.	.	.
=150	=150	=150	=150	=150	=150	=150	=150	=150	=150
.	.	8gq 8bq	_	.	.	.	.	.	.
8d	no-	4.a 4.cc	hoo	1GM	.	voice	.	213.403	G:maj
8d	-thing	.	.	.	.	.	.	.	.
8e	to	.	.	.	.	.	.	.	.
8~f_	lose,	8g 8b	_	.	.	.	B	.	.
8f#	_	4r	.	.	.	.	.	.	.
8f#	I	.	.	.	.	.	.	.	.
8e	wan-	[4f# [4a	hoo	.	.	.	.	.	.
8d	-na	.	.	.	.	.	.	.	.
=151	=151	=151	=151	=151	=151	=151	=151	=151	=151
8f]	know,	2f#] 2a]	_	1Bm	.	voice	.	214.839	B:min
8f	I	.	.	.	.	.	.	.	.
8e	wan-	.	.	.	.	.	.	.	.
8d	-na	.	.	.	.	.	.	.	.
8d	know	2r	.	.	.	.	.	.	.
8r	.	.	.	.	.	.	.	.	.
8r	.	.	.	.	.	.	.	.	.
8B	who	.	.	.	.	.	B	.	.
=152	=152	=152	=152	=152	=152	=152	=152	=152	=152
8d	wears	1r	.	1Bm	.	voice	.	216.274	B:min
4e	these	.	.	.	.	.	.	.	.
[8~f	shoes!	.	.	.	.	.	B	.	.
8f#	_	.	.	.	.	.	.	.	.
8f#	I	.	.	.	.	.	.	.	.
8e	got	.	.	.	.	.	.	.	.
8d	the	.	.	.	.	.	.	.	.
=153	=153	=153	=153	=153	=153	=153	=153	=153	=153
4d	blues	4r	.	1GM	newline	voice	B	217.71	G:maj
4r	.	4g 4b	Hoo,	.	.	.	.	.	.
4r	.	4g 4b	hoo	.	.	.	.	.	.
8r	.	4r	.	.	.	.	.	.	.
8B	W-	.	.	.	.	.	.	.	.
=154	=154	=154	=154	=154	=154	=154	=154	=154	=154
.	.	8gq 8bq	_	.	.	.	.	.	.
8d	-whe-	4.a 4.cc	hoo	1GM	.	voice	.	219.125	G:maj
8d	-ther	.	.	.	.	.	.	.	.
8e	it's	.	.	.	.	.	.	.	.
8~f_	true,	8g 8b	_	.	.	.	B	.	.
8f#	_	2r	.	.	.	.	.	.	.
8f#	I	.	.	.	.	.	.	.	.
8e	got	.	.	.	.	.	.	.	.
8d	the	.	.	.	.	.	.	.	.
=155	=155	=155	=155	=155	=155	=155	=155	=155	=155
4d	blues	4r	.	1DM	.	voice	B	220.54	D:maj
4r	.	4f# 4a	Hoo,	.	.	.	.	.	.
4r	.	4f# 4a	hoo	.	.	.	.	.	.
8r	.	4r	.	.	.	.	.	.	.
8B	W-	.	.	.	.	.	.	.	.
=156	=156	=156	=156	=156	=156	=156	=156	=156	=156
.	.	8f#q 8aq	_	.	.	.	.	.	.
8d	-whe-	4.g 4.b	hoo	1DM	.	voice	.	221.954	D:maj
8d	-ther	.	.	.	.	.	.	.	.
8e	it's	.	.	.	.	.	.	.	.
8~f_	true,	8f# 8a	_	.	.	.	B	.	.
8f#	_	2r	.	.	.	.	.	.	.
8f#	I	.	.	.	.	.	.	.	.
8e	wan-	.	.	.	.	.	.	.	.
8d	-na	.	.	.	.	.	.	.	.
=157	=157	=157	=157	=157	=157	=157	=157	=157	=157
4d	know	4r	.	1GM	newline	voice	.	223.369	G:maj
4r	.	4g 4b	Hoo,	.	.	.	.	.	.
4r	.	4g 4b	hoo	.	.	.	.	.	.
8r	.	4r	.	.	.	.	.	.	.
8B	Got	.	.	.	.	.	.	.	.
=158	=158	=158	=158	=158	=158	=158	=158	=158	=158
.	.	8gq 8bq	_	.	.	.	.	.	.
8d	no-	4.a 4.cc	hoo	1GM	.	voice	.	224.79	G:maj
8d	-thing	.	.	.	.	.	.	.	.
8e	to	.	.	.	.	.	.	.	.
8~f_	lose,	8g 8b	_	.	.	.	B	.	.
8f#	_	4r	.	.	.	.	.	.	.
8f#	I	.	.	.	.	.	.	.	.
8e	wan-	[4f# [4a	hoo	.	.	.	.	.	.
8d	-na	.	.	.	.	.	.	.	.
=159	=159	=159	=159	=159	=159	=159	=159	=159	=159
8f]	know,	2f#] 2a]	_	1Bm	.	voice	.	226.211	B:min
8f	I	.	.	.	.	.	.	.	.
8e	wan-	.	.	.	.	.	.	.	.
8d	-na	.	.	.	.	.	.	.	.
8d	know	2r	.	.	.	.	.	.	.
8r	.	.	.	.	.	.	.	.	.
8r	.	.	.	.	.	.	.	.	.
8B	who	.	.	.	.	.	B	.	.
=160	=160	=160	=160	=160	=160	=160	=160	=160	=160
8d	wears	1r	.	1Bm	.	voice	.	227.632	B:min
4e	these	.	.	.	.	.	.	.	.
[8~f	shoes!	.	.	.	.	.	B	.	.
8f#	_	.	.	.	.	.	.	.	.
8f#	I	.	.	.	.	.	.	.	.
8e	got	.	.	.	.	.	.	.	.
8d	the	.	.	.	.	.	.	.	.
=161	=161	=161	=161	=161	=161	=161	=161	=161	=161
8eq	_	.	.	.	.	.	.	.	.
4f]	blues	4r	.	1GM	newline	voice	B	229.053	G:maj
4r	.	4g 4b	Hoo,	.	.	.	.	.	.
2r	.	4g 4b	hoo	.	.	.	.	.	.
.	.	4r	.	.	.	.	.	.	.
=162	=162	=162	=162	=162	=162	=162	=162	=162	=162
.	.	8gq 8bq	_	.	.	.	.	.	.
4r	.	4.a 4.cc	hoo	1GM	.	voice	.	230.473	G:maj
8r	.	.	.	.	.	.	.	.	.
[8b	Hoo,	8g 8b	_	.	.	.	.	.	.
8b]	_	2r	.	.	.	.	.	.	.
8d	I	.	.	.	.	.	.	.	.
8~e	got	.	.	.	.	.	.	.	.
8d	the	.	.	.	.	.	.	.	.
=163	=163	=163	=163	=163	=163	=163	=163	=163	=163
8fq	_	.	.	.	.	.	.	.	.
4f#	blues	4r	.	1DM	.	voice	B	231.893	D:maj
4r	.	4f# 4a	Hoo,	.	.	.	.	.	.
2r	.	4f# 4a	hoo	.	.	.	.	.	.
.	.	4r	.	.	.	.	.	.	.
=164	=164	=164	=164	=164	=164	=164	=164	=164	=164
.	.	8f#q 8aq	_	.	.	.	.	.	.
4r	.	4.g 4.b	hoo	1DM	.	voice	.	233.313	D:maj
8r	.	.	.	.	.	.	.	.	.
16d	Hoo,	8f# 8a	_	.	.	.	.	.	.
16e	_	.	.	.	.	.	.	.	.
4.f	_	2r	.	.	.	.	.	.	.
16d	hoo	.	.	.	.	.	.	.	.
16e	_	.	.	.	.	.	.	.	.
=165	=165	=165	=165	=165	=165	=165	=165	=165	=165
4e	_	4r	.	1GM	newline	voice	.	234.733	G:maj
4r	.	4g 4b	Hoo,	.	.	.	.	.	.
4r	.	4g 4b	hoo	.	.	.	.	.	.
8r	.	4r	.	.	.	.	.	.	.
[8f	Who	.	.	.	.	.	B	.	.
=166	=166	=166	=166	=166	=166	=166	=166	=166	=166
.	.	8gq 8bq	_	.	.	.	.	.	.
8f]	_	4.a 4.cc	hoo	1GM	.	voice	.	236.145	G:maj
4d	_	.	.	.	.	.	.	.	.
[8f	wears	8g 8b	_	.	.	.	.	.	.
8f]	_	4r	.	.	.	.	.	.	.
4d	these	.	.	.	.	.	.	.	.
.	.	[4f# [4a	hoo	.	.	.	.	.	.
[8d	shoes	.	.	.	.	.	B	.	.
=167	=167	=167	=167	=167	=167	=167	=167	=167	=167
8d]	_	2f#] 2a]	_	1Bm	.	voice	.	237.556	B:min
8r	.	.	.	.	.	.	.	.	.
4r	.	.	.	.	.	.	.	.	.
2r	.	2r	.	.	.	.	.	.	.
=168	=168	=168	=168	=168	=168	=168	=168	=168	=168
4r	.	1r	.	1Bm	.	voice	.	238.967	B:min
8r	.	.	.	.	.	.	.	.	.
[8~f	Ah,	.	.	.	.	.	.	.	.
8f#	_	.	.	.	.	.	.	.	.
8f#	I	.	.	.	.	.	.	.	.
8e	got	.	.	.	.	.	.	.	.
8d	the	.	.	.	.	.	.	.	.
=169	=169	=169	=169	=169	=169	=169	=169	=169	=169
8f]q	_	.	.	.	.	.	.	.	.
4f#	blues	4r	.	1GM	.	voice	B	240.201	G:maj
4r	.	4g 4b	Hoo	.	.	.	.	.	.
2r	.	4g 4b	hoo	.	.	.	.	.	.
.	.	4r	.	.	.	.	.	.	.
=170	=170	=170	=170	=170	=170	=170	=170	=170	=170
.	.	8gq 8bq	_	.	.	.	.	.	.
1r	.	4.a 4.cc	hoo	1GM	.	voice	.	240.378	G:maj
.	.	8g 8b	_	.	.	.	.	.	.
.	.	2r	.	.	.	.	.	.	.
=171	=171	=171	=171	=171	=171	=171	=171	=171	=171
1r	.	1r	.	1DM	.	voice	.	240.731	D:maj
r;	.	r;	.	1r;	.	r	.	240.907	N.C.
r;	.	r;	.	1r;	.	r	.	242.834	N.C.
*-	*-	*-	*-	*-	*-	*-	*-	*-	*-
!!!BillboardChartDate: 1984/11/17
!!!BillboardPeak: 16
!!!BillboardWeeksOnChart: 14
!!!COC: Elton John
!!!ENC: Nathaniel Condit-Schultz
!!!EST: Awating manual error checking and editing.
!!!OTL: Who Wears These Shoes?
!!!RDF**chordsym: original McGill chord annotation + (implied pitch class set, with bass pitch in first position)
!!!RDF**harmony: **recip + pitch class of root + harmonic quality
!!!RDF**leadinstrument: original McGill primary instrumentation annotation
!!!RDF**phrase: newline = linebreak in original McGill transcription
!!!RDF**timestamp: McGill audio timestamp in seconds
!!!RDT: 2017/01/12/
!!!SampleActualRank: 35
!!!SampleID#: 1269
!!!SampleTargetRank: 36
